svg/24/globe.svg

<svg width="24" height="24" viewBox="0 0 24 24" fill="currentColor" xmlns="http://www.w3.org/2000/svg"><path fill-rule="evenodd" clip-rule="evenodd" d="M22 12C22 6.47715 17.5228 2 12 2C6.47715 2 2 6.47715 2 12C2 17.5228 6.47715 22 12 22C17.5228 22 22 17.5228 22 12ZM12 20.5C12.1372 20.5 12.3735 20.4227 12.6881 20.0439C12.999 19.6696 13.3126 19.083 13.5905 18.2921C14.0877 16.8771 14.4257 14.9374 14.4892 12.75H9.51083C9.5743 14.9374 9.91231 16.8771 10.4095 18.2921C10.6874 19.083 11.001 19.6696 11.3119 20.0439C11.6265 20.4227 11.8628 20.5 12 20.5ZM9.51083 11.25C9.5743 9.06259 9.91231 7.12294 10.4095 5.70788C10.6874 4.91703 11.001 4.33044 11.3119 3.95615C11.6265 3.57734 11.8628 3.5 12 3.5C12.1372 3.5 12.3735 3.57734 12.6881 3.95615C12.999 4.33044 13.3126 4.91703 13.5905 5.70788C14.0877 7.12294 14.4257 9.06259 14.4892 11.25H9.51083ZM15.9898 12.75C15.9261 15.0728 15.5686 17.1872 15.0057 18.7894C14.8312 19.2859 14.6326 19.7462 14.4091 20.1538C17.6995 19.1831 20.1592 16.2749 20.4674 12.75H15.9898ZM20.4674 11.25H15.9898C15.9261 8.92721 15.5686 6.81277 15.0057 5.21065C14.8312 4.71406 14.6326 4.25385 14.4091 3.84623C17.6995 4.81688 20.1592 7.72507 20.4674 11.25ZM8.01024 11.25H3.53263C3.8408 7.72507 6.30049 4.81688 9.5909 3.84623C9.36744 4.25385 9.16879 4.71406 8.99431 5.21065C8.4314 6.81277 8.07392 8.92721 8.01024 11.25ZM3.53263 12.75H8.01024C8.07392 15.0728 8.4314 17.1872 8.99431 18.7894C9.16878 19.2859 9.36744 19.7462 9.5909 20.1538C6.30049 19.1831 3.8408 16.2749 3.53263 12.75Z"/></svg>

<svg xmlns="http://www.w3.org/2000/svg" width="24" height="24" fill="currentColor" viewBox="0 0 24 24">
  <path fill-rule="evenodd" d="M22 12c0-5.523-4.477-10-10-10S2 6.477 2 12s4.477 10 10 10 10-4.477 10-10Zm-10 8.5c.137 0 .373-.077.688-.456.311-.374.625-.961.902-1.752.498-1.415.836-3.355.9-5.542H9.51c.064 2.187.402 4.127.9 5.542.277.791.591 1.378.902 1.752.315.379.55.456.688.456Zm-2.49-9.25c.064-2.187.402-4.127.9-5.542.277-.791.591-1.378.902-1.752.315-.379.55-.456.688-.456.137 0 .373.077.688.456.311.374.625.961.902 1.752.498 1.415.836 3.355.9 5.542H9.51Zm6.48 1.5c-.064 2.323-.421 4.437-.984 6.04a9.187 9.187 0 0 1-.597 1.364 8.507 8.507 0 0 0 6.058-7.404H15.99Zm4.477-1.5H15.99c-.064-2.323-.421-4.437-.984-6.04a9.184 9.184 0 0 0-.597-1.364 8.507 8.507 0 0 1 6.058 7.404Zm-12.457 0H3.533A8.507 8.507 0 0 1 9.59 3.846a9.186 9.186 0 0 0-.597 1.365c-.563 1.602-.92 3.716-.984 6.039Zm-4.477 1.5H8.01c.064 2.323.421 4.437.984 6.04.175.496.373.956.597 1.364a8.507 8.507 0 0 1-6.058-7.404Z" clip-rule="evenodd"/>
</svg>
